packages/foundations/assets/icons/functional/images/maps/compass_24.svg

<svg width="24" height="24" viewBox="0 0 24 24" fill="none" xmlns="http://www.w3.org/2000/svg">
<g clip-path="url(#clip0_186_7)">
<path fill-rule="evenodd" clip-rule="evenodd" d="M12 1.0005C18.065 1.0005 23 5.9355 23 11.9995C23 18.0645 18.065 22.9995 12 22.9995C5.935 22.9995 1 18.0645 1 11.9995C1 5.9355 5.935 1.0005 12 1.0005ZM13 3.0595V3.5385C13 4.0915 12.552 4.5385 12 4.5385C11.448 4.5385 11 4.0915 11 3.5385V3.0595C6.836 3.5225 3.522 6.8355 3.059 10.9995H3.539C4.091 10.9995 4.539 11.4465 4.539 11.9995C4.539 12.5525 4.091 12.9995 3.539 12.9995H3.059C3.522 17.1645 6.836 20.4775 11 20.9405V20.4615C11 19.9085 11.448 19.4615 12 19.4615C12.552 19.4615 13 19.9085 13 20.4615V20.9405C17.164 20.4775 20.478 17.1645 20.941 12.9995H20.461C19.909 12.9995 19.461 12.5525 19.461 11.9995C19.461 11.4465 19.909 10.9995 20.461 10.9995H20.941C20.478 6.8355 17.164 3.5225 13 3.0595ZM9.9147 11.8266C10.4587 11.9146 10.8327 12.4246 10.7477 12.9706L10.4857 14.6356L11.7977 13.5766C12.2277 13.2296 12.8577 13.2966 13.2037 13.7266C13.5507 14.1556 13.4837 14.7856 13.0547 15.1326L9.7237 17.8216C9.4017 18.0806 8.9537 18.1166 8.5957 17.9096C8.2367 17.7026 8.0437 17.2966 8.1077 16.8876L8.7717 12.6596C8.8577 12.1136 9.3687 11.7416 9.9147 11.8266ZM15.4035 6.1178C15.7605 6.3238 15.9535 6.7288 15.8915 7.1358L15.2495 11.3278C15.1735 11.8228 14.7475 12.1768 14.2625 12.1768C14.2115 12.1768 14.1605 12.1728 14.1095 12.1648C13.5635 12.0818 13.1885 11.5718 13.2725 11.0258L13.5265 9.3698L12.2205 10.4178C11.7885 10.7608 11.1595 10.6948 10.8145 10.2638C10.4695 9.8318 10.5375 9.2028 10.9695 8.8578L14.2775 6.2038C14.5995 5.9468 15.0455 5.9108 15.4035 6.1178Z" fill="#1A1C1F"/>
</g>
<defs>
<clipPath id="clip0_186_7">
<rect width="24" height="24" fill="white"/>
</clipPath>
</defs>
</svg>

<svg xmlns="http://www.w3.org/2000/svg" width="24" height="24" fill="none"><g clip-path="url(#a)"><path fill="#1A1C1F" fill-rule="evenodd" d="M12 1c6.065 0 11 4.936 11 11s-4.935 11-11 11S1 18.064 1 12 5.935 1 12 1m1 2.06v.478a1 1 0 1 1-2 0V3.06A9.01 9.01 0 0 0 3.059 11h.48a1 1 0 1 1 0 2h-.48A9.01 9.01 0 0 0 11 20.94v-.479a1 1 0 1 1 2 0v.48A9.01 9.01 0 0 0 20.941 13h-.48a1 1 0 1 1 0-2h.48A9.01 9.01 0 0 0 13 3.06m-3.085 8.767c.544.088.918.598.833 1.144l-.262 1.665 1.312-1.06a1 1 0 1 1 1.257 1.557l-3.331 2.689a1 1 0 0 1-1.616-.934l.664-4.228a1 1 0 0 1 1.143-.833m5.489-5.71c.357.207.55.612.488 1.019l-.643 4.192a1 1 0 0 1-1.976-.302l.254-1.656-1.306 1.048a1 1 0 1 1-1.251-1.56l3.308-2.654a1 1 0 0 1 1.125-.086" clip-rule="evenodd"/></g><defs><clipPath id="a"><path fill="#fff" d="M0 0h24v24H0z"/></clipPath></defs></svg>
